X:61
T: ES DUNKELT IN DEM WALDE
N: E0679A
O: Europa, Mitteleuropa, Deutschland, Potsdam
R: Liebes - Lied, Leid, Klage
M: 2/4
L: 1/16
K: F
C2 | F2G2A2B2 | c4f2d2 | c4A2
c2 | B2B2AcA2 | G4z2
c2 | d2c2d2e2 | f2d2c2
B2 | A2A2cBG2 | F4z2

